X:2033
T:Bryony Lemon's Jig
T:Patsy Geary's
R:Jig
C:Trad.
O:Ireland
Z:Paul Hardy's Session Tunebook 2015 (see www.paulhardy.net). Creative Commons cc by-nc-sa licenced.
M:6/8
L:1/8
Q:3/8=90
K:Dmix
"G"B3 BcA|"D"AGE "G"G2D|GAG GBd|"C"ecA "D"ABc|
"G"B3 BcA|"D"AGE "G"G2A|Bcd "C"ecA|"D"GED "G"D3:|
|:"Am"A3 ABA|"G"GED D3|EDE GcA|"C"GED "D"DEG|
"Am"A3 ABA|"G"GED D3|Bcd "C"ecA|"D"GED "G"D3:|

